icons/core/timer.svg

<svg width="32" height="32" viewBox="0 0 32 32" xmlns="http://www.w3.org/2000/svg"><path fill-rule="evenodd" clip-rule="evenodd" d="M21 3H11V1H21V3ZM26 17C26 22.5228 21.5228 27 16 27C10.4772 27 6 22.5228 6 17C6 11.4772 10.4772 7 16 7C21.5228 7 26 11.4772 26 17ZM28 17C28 23.6274 22.6274 29 16 29C9.37258 29 4 23.6274 4 17C4 10.3726 9.37258 5 16 5C18.698 5 21.1881 5.89039 23.1923 7.39336L27.2928 3.29288L28.707 4.7071L24.6898 8.72429C26.7409 10.8773 28 13.7916 28 17ZM15 10V19H17V10H15Z"/></svg>

<svg viewBox="0 0 32 32" xmlns="http://www.w3.org/2000/svg"><path fill-rule="evenodd" d="M21 3H11V1h10v2zm5 14c0 5.523-4.477 10-10 10S6 22.523 6 17 10.477 7 16 7s10 4.477 10 10zm2 0c0 6.627-5.373 12-12 12S4 23.627 4 17 9.373 5 16 5c2.698 0 5.188.89 7.192 2.393l4.1-4.1 1.415 1.414-4.017 4.017A11.959 11.959 0 0128 17zm-13-7v9h2v-9h-2z"/></svg>
